; generated by PrusaSlicer 2.7.2+win64 on 2024-03-31 at 23:35:43 UTC


;
;

;
;
; 

; external perimeters extrusion width = 0.40mm
; perimeters extrusion width = 0.40mm
; infill extrusion width = 0.40mm
; solid infill extrusion width = 0.40mm
; top infill extrusion width = 0.40mm
; support material extrusion width = 0.38mm
; first layer extrusion width = 0.45mm



; Pre-Processed for Cancel-Object support by preprocess_cancellation v0.2.0
; 1 known objects
EXCLUDE_OBJECT_DEFINE NAME=Body1_stl_id_0_copy_0 CENTER=98.480,99.965 POLYGON=[[73.73,76.023],[73.73,123.977],[126.358,123.977],[126.358,76.023]]
M73 P0 R58

; printing object Body1.stl id:0 copy 0
EXCLUDE_OBJECT_START NAME=Body1_stl_id_0_copy_0
; stop printing object Body1.stl id:0 copy 0
EXCLUDE_OBJECT_END NAME=Body1_stl_id_0_copy_0

;TYPE:Custom
M190 S0 ; Prevents prusaslicer from prepending m190 to the gcode interfering with the macro
M109 S0 ; Prevents prusaslicer from prepending m109 to the gcode interfering with the macro
SET_GCODE_VARIABLE MACRO=RatOS VARIABLE=relative_extrusion VALUE=True
START_PRINT EXTRUDER_TEMP=205 BED_TEMP=68 X0=62.712 Y0=65.0051 X1=137.376 Y1=134.995
G21 ; set units to millimeters
G90 ; use absolute coordinates
M83 ; use relative distances for extrusion
; Filament gcode
SET_GCODE_OFFSET Z=0
SET_PRESSURE_ADVANCE ADVANCE=0.05
M107
;LAYER_CHANGE
;Z:0.2
;HEIGHT:0.2
G10 ; retract
G1 Z.2 F15000
G1 X66.325 Y68.141
G11 ; unretract
M204 S1000
;TYPE:Skirt/Brim
;WIDTH:0.45
G1 F3600
G1 X68.717 Y66.441 E.08841
G1 X71.477 Y65.446 E.08838
G1 X73.73 Y65.209 E.06825
G1 X121.684 Y65.209 E1.44464
G1 X124.591 Y65.607 E.08839
G1 X127.285 Y66.772 E.08842
G1 X129.331 Y68.376 E.07832
G1 X131.668 Y70.713 E.09957
G1 X133.442 Y73.051 E.08841
G1 X134.512 Y75.737 E.0871
G1 X136.849 Y85.085 E.29028
G1 X137.172 Y87.708 E.07962
G1 X137.172 Y112.292 E.7406
G1 X136.849 Y114.915 E.07962
G1 X134.512 Y124.263 E.29028
G1 X133.421 Y126.987 E.0884
G1 X131.668 Y129.287 E.08712
G1 X129.331 Y131.624 E.09957
G1 X126.993 Y133.398 E.08841
G1 X124.265 Y134.479 E.0884
G1 X121.684 Y134.791 E.07832
G1 X73.73 Y134.791 E1.44464
G1 X70.822 Y134.393 E.08842
G1 X68.129 Y133.228 E.08839
G1 X65.848 Y131.382 E.0884
G1 X64.148 Y128.99 E.08841
G1 X63.153 Y126.229 E.08841
G1 X62.916 Y123.977 E.06822
G1 X62.916 Y76.023 E1.44464
G1 X63.314 Y73.115 E.08842
G1 X64.479 Y70.422 E.08839
G1 X66.287 Y68.188 E.08658
M204 S3000
G1 X66.287 Y68.188 F15000
G1 X66.614 Y68.46
M204 S1000
G1 F3600
G1 X66.725 Y68.326 E.00524
G1 X69.101 Y66.702 E.0867
G1 X71.832 Y65.79 E.08674
G1 X73.73 Y65.616 E.05742
G1 X121.684 Y65.616 E1.44464
G1 X124.535 Y66.014 E.08672
G1 X127.168 Y67.178 E.08673
G1 X129.043 Y68.664 E.07207
G1 X131.38 Y71.001 E.09957
G1 X133.114 Y73.298 E.0867
G1 X134.117 Y75.836 E.08221
G1 X136.455 Y85.184 E.29029
G1 X136.765 Y87.708 E.07661
G1 X136.765 Y112.292 E.7406
G1 X136.455 Y114.816 E.07661
G1 X134.117 Y124.164 E.29029
G1 X133.04 Y126.833 E.0867
G1 X131.38 Y128.999 E.08221
G1 X129.043 Y131.336 E.09957
G1 X126.746 Y133.07 E.0867
G1 X124.061 Y134.109 E.08673
G1 X121.684 Y134.384 E.07209
G1 X73.73 Y134.384 E1.44464
G1 X70.879 Y133.986 E.08672
G1 X68.246 Y132.822 E.08673
G1 X66.033 Y130.982 E.0867
G1 X64.409 Y128.606 E.0867
G1 X63.497 Y125.875 E.08674
G1 X63.323 Y123.977 E.05742
G1 X63.323 Y76.023 E1.44464
G1 X63.721 Y73.172 E.08672
G1 X64.885 Y70.539 E.08673
G1 X66.576 Y68.506 E.07966
M204 S3000
; printing object Body1.stl id:0 copy 0
EXCLUDE_OBJECT_START NAME=Body1_stl_id_0_copy_0
G10 ; retract
G1 X66.576 Y68.506 F15000
G1 X121.684 Y78.36
G11 ; unretract
M204 S1000
;TYPE:Support material
G1 F3600
G1 X124.021 Y78.36 E.0704
G1 X124.021 Y87.708 E.28161
G1 X126.358 Y87.708 E.0704
G1 X126.358 Y112.292 E.7406
G1 X124.021 Y112.292 E.0704
G1 X124.021 Y121.64 E.28161
G1 X121.684 Y121.64 E.0704
G1 X121.684 Y123.977 E.0704
G1 X73.73 Y123.977 E1.44464
G1 X73.73 Y76.023 E1.44464
G1 X121.684 Y76.023 E1.44464
G1 X121.684 Y78.299 E.06857
M204 S3000
G1 X121.684 Y78.299 F15000
G1 X107.537 Y79.006
M204 S1000
G1 F3600
G1 X114.209 Y79 E.201
G1 X114.798 Y79.159 E.01838
G1 X115.374 Y79.538 E.02077
G1 X118.278 Y82.42 E.12325
G1 X118.586 Y82.819 E.01518
G1 X118.786 Y83.278 E.01508
G1 X118.874 Y83.858 E.01767
G1 X118.892 Y89.865 E.18096
G1 X118.974 Y90.425 E.01705
G1 X119.13 Y90.799 E.01221
G1 X119.591 Y91.357 E.0218
G1 X120.082 Y91.656 E.01732
G1 X120.639 Y91.796 E.0173
G1 X122.367 Y91.854 E.05209
G1 X122.817 Y92.143 E.01611
G1 X123.046 Y92.53 E.01355
G1 X123.101 Y92.854 E.0099
G1 X123.127 Y107.176 E.43146
G1 X122.91 Y107.652 E.01576
G1 X122.445 Y107.987 E.01727
G1 X120.689 Y108.066 E.05295
G1 X119.979 Y108.283 E.02237
G1 X119.516 Y108.627 E.01738
G1 X119.103 Y109.245 E.02239
G1 X118.953 Y110.008 E.02343
G1 X118.968 Y116.081 E.18295
G1 X118.89 Y116.585 E.01536
G1 X118.68 Y117.072 E.01598
G1 X118.376 Y117.465 E.01497
G1 X115.369 Y120.469 E.12805
G1 X114.855 Y120.767 E.0179
G1 X114.337 Y120.901 E.01612
G1 X81.943 Y121.014 E.97589
G1 X81.431 Y120.949 E.01555
G1 X80.886 Y120.722 E.01779
G1 X80.493 Y120.418 E.01497
G1 X77.488 Y117.411 E.12807
G1 X77.213 Y116.953 E.01609
G1 X77.057 Y116.379 E.01792
G1 X76.944 Y83.986 E.97586
G1 X77.009 Y83.473 E.01558
G1 X77.236 Y82.928 E.01779
G1 X77.54 Y82.535 E.01497
G1 X80.418 Y79.643 E.12291
G1 X80.991 Y79.262 E.02073
G1 X81.555 Y79.102 E.01766
G1 X107.476 Y79.006 E.78089
M204 S3000
G10 ; retract
G1 X107.476 Y79.006 F15000
G1 X125.826 Y112.109
G11 ; unretract
M204 S1000
G1 F3600
G1 X125.826 Y88.075 E.72403
G1 X125.373 Y88.075 E.01365
G1 X125.373 Y111.925 E.71849
G1 X124.921 Y111.925 E.01362
G1 X124.921 Y88.075 E.71849
G1 X124.469 Y88.075 E.01362
G1 X124.469 Y111.925 E.71849
G1 X124.016 Y111.925 E.01365
G1 X124.016 Y88.075 E.71849
G1 X123.655 Y88.075 E.01088
G1 X123.655 Y78.726 E.28164
G1 X123.564 Y78.726 E.00274
G1 X123.564 Y121.274 E1.28178
G1 X123.112 Y121.274 E.01362
G1 X123.112 Y107.976 E.40061
G1 X122.659 Y108.294 E.01667
G1 X122.659 Y121.274 E.39103
G1 X122.207 Y121.274 E.01362
G1 X122.207 Y108.41 E.38753
G1 X121.755 Y108.419 E.01362
G1 X121.755 Y121.274 E.38726
G1 X121.318 Y121.274 E.01316
G1 X121.318 Y123.611 E.0704
G1 X121.303 Y108.42 E.45764
G1 X120.85 Y108.424 E.01365
G1 X120.85 Y123.611 E.45752
G1 X120.398 Y123.611 E.01362
G1 X120.398 Y108.502 E.45517
G1 X119.946 Y108.74 E.01539
G1 X119.946 Y123.611 E.448
G1 X119.493 Y123.611 E.01365
G1 X119.493 Y109.276 E.43185
G1 X119.32 Y110.015 E.02286
G1 X119.334 Y116.102 E.18337
G1 X119.261 Y116.62 E.01576
G1 X119.041 Y117.177 E.01804
G1 X119.041 Y123.611 E.19383
G1 X118.589 Y123.611 E.01362
G1 X118.589 Y117.771 E.17593
G1 X118.136 Y118.226 E.01934
G1 X118.136 Y123.611 E.16223
G1 X117.684 Y123.611 E.01362
G1 X117.684 Y118.681 E.14852
G1 X117.232 Y119.136 E.01932
G1 X117.232 Y123.611 E.13481
G1 X116.779 Y123.611 E.01365
G1 X116.779 Y119.591 E.1211
G1 X116.327 Y120.046 E.01932
G1 X116.327 Y123.611 E.1074
G1 X115.875 Y123.611 E.01362
G1 X115.875 Y120.501 E.09369
G1 X115.423 Y120.879 E.01775
G1 X115.423 Y123.611 E.0823
G1 X114.97 Y123.611 E.01365
G1 X114.97 Y121.115 E.07519
G1 X114.518 Y121.242 E.01414
G1 X114.518 Y123.611 E.07137
G1 X114.066 Y123.611 E.01362
G1 X114.066 Y121.282 E.07016
G1 X113.613 Y121.284 E.01365
G1 X113.613 Y123.611 E.0701
G1 X113.161 Y123.611 E.01362
G1 X113.161 Y121.285 E.07007
G1 X112.709 Y121.287 E.01362
G1 X112.709 Y123.611 E.07001
G1 X112.256 Y123.611 E.01365
G1 X112.256 Y121.288 E.06998
G1 X111.804 Y121.289 E.01362
G1 X111.804 Y123.611 E.06995
G1 X111.352 Y123.611 E.01362
G1 X111.352 Y121.291 E.06989
G1 X110.899 Y121.292 E.01365
G1 X110.899 Y123.611 E.06986
G1 X110.447 Y123.611 E.01362
G1 X110.447 Y121.293 E.06983
G1 X109.995 Y121.295 E.01362
G1 X109.995 Y123.611 E.06977
G1 X109.542 Y123.611 E.01365
G1 X109.542 Y121.296 E.06974
G1 X109.09 Y121.298 E.01362
G1 X109.09 Y123.611 E.06968
G1 X108.638 Y123.611 E.01362
G1 X108.638 Y121.299 E.06965
G1 X108.186 Y121.3 E.01362
G1 X108.186 Y123.611 E.06962
G1 X107.733 Y123.611 E.01365
G1 X107.733 Y121.302 E.06956
G1 X107.281 Y121.303 E.01362
G1 X107.281 Y123.611 E.06953
G1 X106.829 Y123.611 E.01362
G1 X106.829 Y121.304 E.0695
G1 X106.376 Y121.306 E.01365
G1 X106.376 Y123.611 E.06944
G1 X105.924 Y123.611 E.01362
G1 X105.924 Y121.307 E.06941
G1 X105.472 Y121.309 E.01362
G1 X105.472 Y123.611 E.06935
G1 X105.019 Y123.611 E.01365
G1 X105.019 Y121.31 E.06932
G1 X104.567 Y121.311 E.01362
G1 X104.567 Y123.611 E.06929
G1 X104.115 Y123.611 E.01362
G1 X104.115 Y121.313 E.06923
G1 X103.662 Y121.314 E.01365
G1 X103.662 Y123.611 E.0692
G1 X103.21 Y123.611 E.01362
G1 X103.21 Y121.315 E.06917
G1 X102.758 Y121.317 E.01362
G1 X102.758 Y123.611 E.06911
G1 X102.306 Y123.611 E.01362
G1 X102.306 Y121.318 E.06908
G1 X101.853 Y121.32 E.01365
G1 X101.853 Y123.611 E.06902
G1 X101.401 Y123.611 E.01362
G1 X101.401 Y121.321 E.06899
G1 X100.949 Y121.322 E.01362
G1 X100.949 Y123.611 E.06896
G1 X100.496 Y123.611 E.01365
G1 X100.496 Y121.324 E.0689
G1 X100.044 Y121.325 E.01362
G1 X100.044 Y123.611 E.06887
G1 X99.592 Y123.611 E.01362
G1 X99.592 Y121.326 E.06884
G1 X99.139 Y121.328 E.01365
G1 X99.139 Y123.611 E.06878
G1 X98.687 Y123.611 E.01362
G1 X98.687 Y121.329 E.06875
G1 X98.235 Y121.331 E.01362
G1 X98.235 Y123.611 E.06869
G1 X97.782 Y123.611 E.01365
G1 X97.782 Y121.332 E.06866
G1 X97.33 Y121.333 E.01362
G1 X97.33 Y123.611 E.06863
G1 X96.878 Y123.611 E.01362
G1 X96.878 Y121.335 E.06857
G1 X96.425 Y121.336 E.01365
G1 X96.425 Y123.611 E.06854
G1 X95.973 Y123.611 E.01362
G1 X95.973 Y121.338 E.06848
G1 X95.521 Y121.339 E.01362
G1 X95.521 Y123.611 E.06845
G1 X95.069 Y123.611 E.01362
G1 X95.069 Y121.34 E.06841
G1 X94.616 Y121.342 E.01365
G1 X94.616 Y123.611 E.06835
G1 X94.164 Y123.611 E.01362
G1 X94.164 Y121.343 E.06832
G1 X93.712 Y121.344 E.01362
G1 X93.712 Y123.611 E.06829
G1 X93.259 Y123.611 E.01365
G1 X93.259 Y121.346 E.06823
G1 X92.807 Y121.347 E.01362
G1 X92.807 Y123.611 E.0682
G1 X92.355 Y123.611 E.01362
G1 X92.355 Y121.349 E.06814
G1 X91.902 Y121.35 E.01365
G1 X91.902 Y123.611 E.06811
G1 X91.45 Y123.611 E.01362
G1 X91.45 Y121.351 E.06808
G1 X90.998 Y121.353 E.01362
G1 X90.998 Y123.611 E.06802
G1 X90.545 Y123.611 E.01365
G1 X90.545 Y121.354 E.06799
G1 X90.093 Y121.355 E.01362
G1 X90.093 Y123.611 E.06796
G1 X89.641 Y123.611 E.01362
G1 X89.641 Y121.357 E.0679
G1 X89.189 Y121.358 E.01362
G1 X89.189 Y123.611 E.06787
G1 X88.736 Y123.611 E.01365
G1 X88.736 Y121.36 E.06781
G1 X88.284 Y121.361 E.01362
G1 X88.284 Y123.611 E.06778
G1 X87.832 Y123.611 E.01362
G1 X87.832 Y121.362 E.06775
G1 X87.379 Y121.364 E.01365
G1 X87.379 Y123.611 E.06769
G1 X86.927 Y123.611 E.01362
G1 X86.927 Y121.365 E.06766
G1 X86.475 Y121.366 E.01362
G1 X86.475 Y123.611 E.06763
G1 X86.022 Y123.611 E.01365
G1 X86.022 Y121.368 E.06757
G1 X85.57 Y121.369 E.01362
G1 X85.57 Y123.611 E.06754
G1 X85.118 Y123.611 E.01362
G1 X85.118 Y121.371 E.06748
G1 X84.665 Y121.372 E.01365
G1 X84.665 Y123.611 E.06745
G1 X84.213 Y123.611 E.01362
G1 X84.213 Y121.373 E.06742
G1 X83.761 Y121.375 E.01362
G1 X83.761 Y123.611 E.06736
G1 X83.308 Y123.611 E.01365
G1 X83.308 Y121.376 E.06733
G1 X82.856 Y121.377 E.01362
G1 X82.856 Y123.611 E.0673
G1 X82.404 Y123.611 E.01362
G1 X82.404 Y121.379 E.06724
G1 X81.952 Y121.38 E.01362
G1 X81.952 Y123.611 E.06721
G1 X81.499 Y123.611 E.01365
G1 X81.499 Y121.337 E.06851
G1 X81.047 Y121.208 E.01416
G1 X81.047 Y123.611 E.07239
G1 X80.595 Y123.611 E.01362
G1 X80.595 Y120.968 E.07962
G1 X80.142 Y120.586 E.01785
G1 X80.142 Y123.611 E.09113
G1 X79.69 Y123.611 E.01362
G1 X79.69 Y120.137 E.10466
G1 X79.238 Y119.687 E.01921
G1 X79.238 Y123.611 E.11821
G1 X78.785 Y123.611 E.01365
G1 X78.785 Y119.238 E.13174
G1 X78.333 Y118.788 E.01921
G1 X78.333 Y123.611 E.1453
G1 X77.881 Y123.611 E.01362
G1 X77.881 Y118.339 E.15882
G1 X77.428 Y117.889 E.01924
G1 X77.428 Y123.611 E.17238
G1 X76.976 Y123.611 E.01362
G1 X76.976 Y117.299 E.19015
G1 X76.756 Y116.749 E.01785
G1 X76.675 Y116.148 E.01827
G1 X76.577 Y83.982 E.96902
G1 X76.674 Y83.311 E.02042
G1 X76.976 Y82.657 E.0217
G1 X76.976 Y76.389 E.18883
G1 X77.428 Y76.389 E.01362
G1 X77.428 Y82.127 E.17286
G1 X77.881 Y81.672 E.01934
G1 X77.881 Y76.389 E.15915
G1 X78.333 Y76.389 E.01362
G1 X78.333 Y81.217 E.14545
G1 X78.785 Y80.762 E.01932
G1 X78.785 Y76.389 E.13174
G1 X79.238 Y76.389 E.01365
G1 X79.238 Y80.307 E.11803
G1 X79.69 Y79.852 E.01932
G1 X79.69 Y76.389 E.10432
G1 X80.142 Y76.389 E.01362
M73 P1 R58
G1 X80.142 Y79.399 E.09068
G1 X80.595 Y79.054 E.01715
G1 X80.595 Y76.389 E.08028
G1 X81.047 Y76.389 E.01362
G1 X81.047 Y78.849 E.07411
G1 X81.499 Y78.74 E.01401
G1 X81.499 Y76.389 E.07082
G1 X81.952 Y76.389 E.01365
G1 X81.952 Y78.717 E.07013
G1 X82.404 Y78.716 E.01362
G1 X82.404 Y76.389 E.0701
G1 X82.856 Y76.389 E.01362
G1 X82.856 Y78.714 E.07004
G1 X83.308 Y78.713 E.01362
G1 X83.308 Y76.389 E.07001
G1 X83.761 Y76.389 E.01365
G1 X83.761 Y78.712 E.06998
G1 X84.213 Y78.71 E.01362
G1 X84.213 Y76.389 E.06992
G1 X84.665 Y76.389 E.01362
G1 X84.665 Y78.709 E.06989
G1 X85.118 Y78.708 E.01365
G1 X85.118 Y76.389 E.06986
G1 X85.57 Y76.389 E.01362
G1 X85.57 Y78.706 E.0698
G1 X86.022 Y78.705 E.01362
G1 X86.022 Y76.389 E.06977
G1 X86.475 Y76.389 E.01365
G1 X86.475 Y78.703 E.06971
G1 X86.927 Y78.702 E.01362
G1 X86.927 Y76.389 E.06968
G1 X87.379 Y76.389 E.01362
G1 X87.379 Y78.701 E.06965
G1 X87.832 Y78.699 E.01365
G1 X87.832 Y76.389 E.06959
G1 X88.284 Y76.389 E.01362
G1 X88.284 Y78.698 E.06956
G1 X88.736 Y78.697 E.01362
G1 X88.736 Y76.389 E.06953
G1 X89.189 Y76.389 E.01365
G1 X89.189 Y78.695 E.06947
G1 X89.641 Y78.694 E.01362
G1 X89.641 Y76.389 E.06944
G1 X90.093 Y76.389 E.01362
G1 X90.093 Y78.692 E.06938
G1 X90.545 Y78.691 E.01362
G1 X90.545 Y76.389 E.06935
G1 X90.998 Y76.389 E.01365
G1 X90.998 Y78.69 E.06932
G1 X91.45 Y78.688 E.01362
G1 X91.45 Y76.389 E.06926
G1 X91.902 Y76.389 E.01362
G1 X91.902 Y78.687 E.06923
G1 X92.355 Y78.686 E.01365
G1 X92.355 Y76.389 E.0692
G1 X92.807 Y76.389 E.01362
G1 X92.807 Y78.684 E.06914
G1 X93.259 Y78.683 E.01362
G1 X93.259 Y76.389 E.06911
G1 X93.712 Y76.389 E.01365
G1 X93.712 Y78.681 E.06905
G1 X94.164 Y78.68 E.01362
G1 X94.164 Y76.389 E.06902
G1 X94.616 Y76.389 E.01362
G1 X94.616 Y78.679 E.06899
G1 X95.069 Y78.677 E.01365
G1 X95.069 Y76.389 E.06893
G1 X95.521 Y76.389 E.01362
G1 X95.521 Y78.676 E.0689
G1 X95.973 Y78.675 E.01362
G1 X95.973 Y76.389 E.06887
G1 X96.425 Y76.389 E.01362
G1 X96.425 Y78.673 E.06881
G1 X96.878 Y78.672 E.01365
G1 X96.878 Y76.389 E.06878
G1 X97.33 Y76.389 E.01362
G1 X97.33 Y78.67 E.06872
G1 X97.782 Y78.669 E.01362
G1 X97.782 Y76.389 E.06869
G1 X98.235 Y76.389 E.01365
G1 X98.235 Y78.668 E.06866
G1 X98.687 Y78.666 E.01362
G1 X98.687 Y76.389 E.0686
G1 X99.139 Y76.389 E.01362
G1 X99.139 Y78.665 E.06857
G1 X99.592 Y78.664 E.01365
G1 X99.592 Y76.389 E.06854
G1 X100.044 Y76.389 E.01362
G1 X100.044 Y78.662 E.06848
G1 X100.496 Y78.661 E.01362
G1 X100.496 Y76.389 E.06845
G1 X100.949 Y76.389 E.01365
G1 X100.949 Y78.659 E.06838
G1 X101.401 Y78.658 E.01362
G1 X101.401 Y76.389 E.06835
G1 X101.853 Y76.389 E.01362
G1 X101.853 Y78.657 E.06832
G1 X102.306 Y78.655 E.01365
G1 X102.306 Y76.389 E.06826
G1 X102.758 Y76.389 E.01362
G1 X102.758 Y78.654 E.06823
G1 X103.21 Y78.653 E.01362
G1 X103.21 Y76.389 E.0682
G1 X103.662 Y76.389 E.01362
G1 X103.662 Y78.651 E.06814
G1 X104.115 Y78.65 E.01365
G1 X104.115 Y76.389 E.06811
G1 X104.567 Y76.389 E.01362
G1 X104.567 Y78.648 E.06805
G1 X105.019 Y78.647 E.01362
G1 X105.019 Y76.389 E.06802
G1 X105.472 Y76.389 E.01365
G1 X105.472 Y78.646 E.06799
G1 X105.924 Y78.644 E.01362
G1 X105.924 Y76.389 E.06793
G1 X106.376 Y76.389 E.01362
G1 X106.376 Y78.643 E.0679
G1 X106.829 Y78.642 E.01365
G1 X106.829 Y76.389 E.06787
G1 X107.281 Y76.389 E.01362
G1 X107.281 Y78.64 E.06781
G1 X107.733 Y78.639 E.01362
G1 X107.733 Y76.389 E.06778
G1 X108.186 Y76.389 E.01365
G1 X108.186 Y78.637 E.06772
G1 X108.638 Y78.636 E.01362
G1 X108.638 Y76.389 E.06769
G1 X109.09 Y76.389 E.01362
G1 X109.09 Y78.635 E.06766
G1 X109.542 Y78.633 E.01362
G1 X109.542 Y76.389 E.0676
G1 X109.995 Y76.389 E.01365
G1 X109.995 Y78.632 E.06757
G1 X110.447 Y78.631 E.01362
G1 X110.447 Y76.389 E.06754
G1 X110.899 Y76.389 E.01362
G1 X110.899 Y78.629 E.06748
G1 X111.352 Y78.628 E.01365
