; generated by PrusaSlicer 2.7.2+win64 on 2024-05-03 at 21:36:24 UTC


;
;

;
;
; 

; external perimeters extrusion width = 0.40mm
; perimeters extrusion width = 0.40mm
; infill extrusion width = 0.40mm
; solid infill extrusion width = 0.40mm
; top infill extrusion width = 0.40mm
; first layer extrusion width = 0.45mm



; Pre-Processed for Cancel-Object support by preprocess_cancellation v0.2.0
; 1 known objects
EXCLUDE_OBJECT_DEFINE NAME=Box_stl_id_0_copy_0 CENTER=99.146,90.134 POLYGON=[[2.2,22.991],[2.2,158.009],[197.8,158.009],[197.8,22.991]]
M73 P0 R313

; printing object Box.stl id:0 copy 0
EXCLUDE_OBJECT_START NAME=Box_stl_id_0_copy_0
; stop printing object Box.stl id:0 copy 0
EXCLUDE_OBJECT_END NAME=Box_stl_id_0_copy_0

;TYPE:Custom
M190 S0 ; Prevents prusaslicer from prepending m190 to the gcode interfering with the macro
M109 S0 ; Prevents prusaslicer from prepending m109 to the gcode interfering with the macro
SET_GCODE_VARIABLE MACRO=RatOS VARIABLE=relative_extrusion VALUE=True
START_PRINT EXTRUDER_TEMP=220 BED_TEMP=65 X0=1.9996 Y0=22.7908 X1=198 Y1=158.209
G21 ; set units to millimeters
G90 ; use absolute coordinates
M83 ; use relative distances for extrusion
; Filament gcode
SET_GCODE_OFFSET Z=0
SET_PRESSURE_ADVANCE ADVANCE=0.05
M107
;LAYER_CHANGE
;Z:0.2
;HEIGHT:0.2
G10 ; retract
; printing object Box.stl id:0 copy 0
EXCLUDE_OBJECT_START NAME=Box_stl_id_0_copy_0
G1 Z.2 F15000
G1 X2.732 Y23.523
G11 ; unretract
M204 S1000
;TYPE:Perimeter
;WIDTH:0.449999
G1 F2400
G1 X197.268 Y23.523 E5.86047
G1 X197.268 Y45.457 E.66077
G1 X197.268 Y157.477 E3.37465
G1 X2.732 Y157.477 E5.86047
G1 X2.732 Y23.583 E4.03361
M204 S3000
G1 X2.732 Y23.583 F15000
G1 X2.325 Y23.116
M204 S1000
;TYPE:External perimeter
G1 F2400
G1 X197.675 Y23.116 E5.885
G1 X197.675 Y45.457 E.67303
G1 X197.675 Y157.884 E3.38691
G1 X2.325 Y157.884 E5.885
G1 X2.325 Y23.176 E4.05813
M204 S3000
G1 X2.72 Y23.116 F15000
G10 ; retract
G1 X54.864 Y140.922
G11 ; unretract
M204 S1000
;TYPE:Perimeter
G1 F2400
G1 X54.682 Y140.88 E.00563
G1 X54.518 Y140.762 E.00609
G1 X19.446 Y105.691 E1.49418
G1 X19.308 Y105.477 E.00767
G1 X19.268 Y105.26 E.00665
G1 X19.268 Y75.74 E.8893
G1 X19.329 Y75.474 E.00822
G1 X19.446 Y75.309 E.00609
G1 X54.518 Y40.238 E1.49418
G1 X54.732 Y40.099 E.00769
G1 X54.949 Y40.059 E.00665
G1 X138.662 Y40.059 E2.52189
G1 X138.929 Y40.12 E.00825
G1 X139.094 Y40.238 E.00611
G1 X180.554 Y81.698 E1.76635
G1 X180.692 Y81.912 E.00767
G1 X180.732 Y82.129 E.00665
G1 X180.732 Y98.871 E.50436
G1 X180.671 Y99.137 E.00822
G1 X180.554 Y99.302 E.00609
G1 X139.094 Y140.762 E1.76635
G1 X138.879 Y140.901 E.00771
G1 X138.662 Y140.941 E.00665
G1 X54.949 Y140.941 E2.52189
G1 X54.923 Y140.935 E.0008
M204 S3000
G1 X54.923 Y140.935 F15000
G1 X54.964 Y140.534
M204 S1000
;TYPE:External perimeter
G1 F2400
G1 X54.949 Y140.534 E.00045
G1 X54.805 Y140.475 E.00469
G1 X19.734 Y105.403 E1.49418
G1 X19.675 Y105.26 E.00466
G1 X19.675 Y75.74 E.8893
G1 X19.734 Y75.597 E.00466
G1 X54.805 Y40.525 E1.49418
G1 X54.949 Y40.466 E.00469
G1 X138.662 Y40.466 E2.52189
G1 X138.806 Y40.525 E.00469
G1 X180.266 Y81.986 E1.76637
G1 X180.325 Y82.129 E.00466
G1 X180.325 Y98.871 E.50436
G1 X180.266 Y99.014 E.00466
G1 X138.806 Y140.475 E1.76637
G1 X138.662 Y140.534 E.00469
G1 X55.024 Y140.534 E2.51963
M204 S3000
G1 X54.678 Y140.333 F15000
G10 ; retract
G1 X196.294 Y23.673
G11 ; unretract
M204 S1000
;TYPE:Solid infill
;WIDTH:0.450494
G1 F2400
G1 X196.935 Y24.314 E.02734
G1 X196.935 Y24.891 E.0174
G1 X195.901 Y23.857 E.04411
G1 X195.324 Y23.857 E.0174
G1 X196.935 Y25.467 E.0687
G1 X196.935 Y26.043 E.01737
G1 X194.748 Y23.857 E.09327
G1 X194.171 Y23.857 E.0174
G1 X196.935 Y26.62 E.11788
G1 X196.935 Y27.196 E.01737
G1 X193.595 Y23.857 E.14245
G1 X193.019 Y23.857 E.01737
G1 X196.935 Y27.773 E.16704
G1 X196.935 Y28.349 E.01737
G1 X192.442 Y23.857 E.19163
G1 X191.866 Y23.857 E.01737
M73 P0 R312
G1 X196.935 Y28.925 E.2162
G1 X196.935 Y29.502 E.0174
G1 X191.289 Y23.857 E.24081
G1 X190.713 Y23.857 E.01737
G1 X196.935 Y30.078 E.26538
G1 X196.935 Y30.655 E.0174
G1 X190.137 Y23.857 E.28997
G1 X189.56 Y23.857 E.0174
G1 X196.935 Y31.231 E.31456
G1 X196.935 Y31.807 E.01737
G1 X188.984 Y23.857 E.33913
G1 X188.407 Y23.857 E.0174
G1 X196.935 Y32.384 E.36375
G1 X196.935 Y32.96 E.01737
G1 X187.831 Y23.857 E.38831
G1 X187.255 Y23.857 E.01737
G1 X196.935 Y33.537 E.41291
G1 X196.935 Y34.113 E.01737
G1 X186.678 Y23.857 E.4375
G1 X186.102 Y23.857 E.01737
G1 X196.935 Y34.689 E.46207
G1 X196.935 Y35.266 E.0174
G1 X185.525 Y23.857 E.48668
G1 X184.949 Y23.857 E.01737
G1 X196.935 Y35.842 E.51125
G1 X196.935 Y36.419 E.0174
G1 X184.373 Y23.857 E.53584
G1 X183.796 Y23.857 E.0174
G1 X196.935 Y36.995 E.56043
G1 X196.935 Y37.571 E.01737
G1 X183.22 Y23.857 E.585
G1 X182.643 Y23.857 E.0174
G1 X196.935 Y38.148 E.60961
G1 X196.935 Y38.724 E.01737
G1 X182.067 Y23.857 E.63418
G1 X181.491 Y23.857 E.01737
G1 X196.935 Y39.301 E.65877
G1 X196.935 Y39.877 E.01737
G1 X180.914 Y23.857 E.68336
G1 X180.338 Y23.857 E.01737
G1 X196.935 Y40.453 E.70793
G1 X196.935 Y41.03 E.0174
G1 X179.761 Y23.857 E.73254
G1 X179.185 Y23.857 E.01737
G1 X196.935 Y41.606 E.75711
G1 X196.935 Y42.183 E.0174
G1 X178.609 Y23.857 E.78171
G1 X178.032 Y23.857 E.0174
G1 X196.935 Y42.759 E.8063
G1 X196.935 Y43.335 E.01737
G1 X177.456 Y23.857 E.83087
G1 X176.879 Y23.857 E.0174
G1 X196.935 Y43.912 E.85548
G1 X196.935 Y44.488 E.01737
G1 X176.303 Y23.857 E.88005
G1 X175.727 Y23.857 E.01737
G1 X196.935 Y45.065 E.90464
G1 X196.935 Y45.641 E.01737
G1 X175.15 Y23.857 E.92923
G1 X174.574 Y23.857 E.01737
G1 X196.935 Y46.217 E.9538
G1 X196.935 Y46.794 E.0174
G1 X173.997 Y23.857 E.97841
G1 X173.421 Y23.857 E.01737
G1 X196.935 Y47.37 E1.00298
G1 X196.935 Y47.947 E.0174
G1 X172.845 Y23.857 E1.02757
G1 X172.268 Y23.857 E.0174
G1 X196.935 Y48.523 E1.05216
G1 X196.935 Y49.099 E.01737
G1 X171.692 Y23.857 E1.07673
G1 X171.115 Y23.857 E.0174
G1 X196.935 Y49.676 E1.10134
G1 X196.935 Y50.252 E.01737
G1 X170.539 Y23.857 E1.12591
G1 X169.963 Y23.857 E.01737
G1 X196.935 Y50.829 E1.15051
G1 X196.935 Y51.405 E.01737
G1 X169.386 Y23.857 E1.1751
G1 X168.81 Y23.857 E.01737
G1 X196.935 Y51.981 E1.19967
G1 X196.935 Y52.558 E.0174
G1 X168.233 Y23.857 E1.22428
G1 X167.657 Y23.857 E.01737
G1 X196.935 Y53.134 E1.24885
G1 X196.935 Y53.71 E.01737
G1 X167.081 Y23.857 E1.27342
G1 X166.504 Y23.857 E.0174
G1 X196.935 Y54.287 E1.29803
G1 X196.935 Y54.863 E.01737
G1 X165.928 Y23.857 E1.3226
G1 X165.352 Y23.857 E.01737
G1 X196.935 Y55.44 E1.34719
G1 X196.935 Y56.016 E.01737
G1 X164.775 Y23.857 E1.37178
G1 X164.199 Y23.857 E.01737
G1 X196.935 Y56.592 E1.39635
G1 X196.935 Y57.169 E.0174
G1 X163.622 Y23.857 E1.42096
G1 X163.046 Y23.857 E.01737
G1 X196.935 Y57.745 E1.44553
G1 X196.935 Y58.322 E.0174
G1 X162.47 Y23.857 E1.47012
G1 X161.893 Y23.857 E.0174
G1 X196.935 Y58.898 E1.49471
G1 X196.935 Y59.474 E.01737
G1 X161.317 Y23.857 E1.51928
G1 X160.74 Y23.857 E.0174
G1 X196.935 Y60.051 E1.5439
G1 X196.935 Y60.627 E.01737
G1 X160.164 Y23.857 E1.56847
G1 X159.588 Y23.857 E.01737
G1 X196.935 Y61.204 E1.59306
G1 X196.935 Y61.78 E.01737
G1 X159.011 Y23.857 E1.61765
G1 X158.435 Y23.857 E.01737
G1 X196.935 Y62.356 E1.64222
G1 X196.935 Y62.933 E.0174
G1 X157.858 Y23.857 E1.66683
G1 X157.282 Y23.857 E.01737
G1 X196.935 Y63.509 E1.6914
G1 X196.935 Y64.086 E.0174
G1 X156.706 Y23.857 E1.71599
G1 X156.129 Y23.857 E.0174
G1 X196.935 Y64.662 E1.74058
G1 X196.935 Y65.238 E.01737
G1 X155.553 Y23.857 E1.76515
G1 X154.976 Y23.857 E.0174
G1 X196.935 Y65.815 E1.78976
G1 X196.935 Y66.391 E.01737
G1 X154.4 Y23.857 E1.81433
G1 X153.824 Y23.857 E.01737
G1 X196.935 Y66.968 E1.83892
G1 X196.935 Y67.544 E.01737
M73 P0 R311
G1 X153.247 Y23.857 E1.86351
G1 X152.671 Y23.857 E.01737
G1 X196.935 Y68.12 E1.88808
G1 X196.935 Y68.697 E.0174
G1 X152.094 Y23.857 E1.9127
G1 X151.518 Y23.857 E.01737
G1 X196.935 Y69.273 E1.93727
G1 X196.935 Y69.85 E.0174
G1 X150.942 Y23.857 E1.96186
G1 X150.365 Y23.857 E.0174
G1 X196.935 Y70.426 E1.98645
G1 X196.935 Y71.002 E.01737
G1 X149.789 Y23.857 E2.01102
G1 X149.212 Y23.857 E.0174
G1 X196.935 Y71.579 E2.03563
G1 X196.935 Y72.155 E.01737
G1 X148.636 Y23.857 E2.0602
G1 X148.06 Y23.857 E.01737
G1 X196.935 Y72.732 E2.08479
G1 X196.935 Y73.308 E.01737
G1 X147.483 Y23.857 E2.10938
G1 X146.907 Y23.857 E.01737
G1 X196.935 Y73.884 E2.13395
G1 X196.935 Y74.461 E.0174
G1 X146.33 Y23.857 E2.15856
G1 X145.754 Y23.857 E.01737
G1 X196.935 Y75.037 E2.18313
G1 X196.935 Y75.614 E.0174
G1 X145.178 Y23.857 E2.20772
G1 X144.601 Y23.857 E.0174
G1 X196.935 Y76.19 E2.23231
G1 X196.935 Y76.766 E.01737
G1 X144.025 Y23.857 E2.25688
G1 X143.448 Y23.857 E.0174
G1 X196.935 Y77.343 E2.2815
G1 X196.935 Y77.919 E.01737
G1 X142.872 Y23.857 E2.30607
G1 X142.296 Y23.857 E.01737
G1 X196.935 Y78.496 E2.33066
G1 X196.935 Y79.072 E.01737
G1 X141.719 Y23.857 E2.35525
G1 X141.143 Y23.857 E.01737
G1 X196.935 Y79.648 E2.37982
G1 X196.935 Y80.225 E.0174
G1 X140.566 Y23.857 E2.40443
G1 X139.99 Y23.857 E.01737
G1 X196.935 Y80.801 E2.429
G1 X196.935 Y81.378 E.0174
G1 X139.414 Y23.857 E2.45359
G1 X138.837 Y23.857 E.0174
G1 X196.935 Y81.954 E2.47818
G1 X196.935 Y82.53 E.01737
G1 X138.261 Y23.857 E2.50275
G1 X137.684 Y23.857 E.0174
G1 X196.935 Y83.107 E2.52736
G1 X196.935 Y83.683 E.01737
G1 X137.108 Y23.857 E2.55193
G1 X136.532 Y23.857 E.01737
G1 X196.935 Y84.26 E2.57652
G1 X196.935 Y84.836 E.01737
G1 X135.955 Y23.857 E2.60111
G1 X135.379 Y23.857 E.01737
G1 X196.935 Y85.412 E2.62568
G1 X196.935 Y85.989 E.0174
M73 P0 R310
G1 X134.802 Y23.857 E2.6503
G1 X134.226 Y23.857 E.01737
G1 X196.935 Y86.565 E2.67487
G1 X196.935 Y87.142 E.0174
G1 X133.65 Y23.857 E2.69946
G1 X133.073 Y23.857 E.0174
G1 X196.935 Y87.718 E2.72405
G1 X196.935 Y88.294 E.01737
G1 X132.497 Y23.857 E2.74862
G1 X131.921 Y23.857 E.01737
M73 P1 R310
G1 X196.935 Y88.871 E2.77321
G1 X196.935 Y89.447 E.01737
G1 X131.344 Y23.857 E2.7978
G1 X130.768 Y23.857 E.01737
G1 X196.935 Y90.023 E2.82237
G1 X196.935 Y90.6 E.0174
G1 X130.191 Y23.857 E2.84698
G1 X129.615 Y23.857 E.01737
G1 X196.935 Y91.176 E2.87155
G1 X196.935 Y91.753 E.0174
G1 X129.039 Y23.857 E2.89614
G1 X128.462 Y23.857 E.0174
G1 X196.935 Y92.329 E2.92073
G1 X196.935 Y92.905 E.01737
G1 X127.886 Y23.857 E2.9453
G1 X127.309 Y23.857 E.0174
G1 X196.935 Y93.482 E2.96991
G1 X196.935 Y94.058 E.01737
G1 X126.733 Y23.857 E2.99448
G1 X126.157 Y23.857 E.01737
G1 X196.935 Y94.635 E3.01907
G1 X196.935 Y95.211 E.01737
G1 X125.58 Y23.857 E3.04366
G1 X125.004 Y23.857 E.01737
G1 X196.935 Y95.787 E3.06823
G1 X196.935 Y96.364 E.0174
G1 X124.427 Y23.857 E3.09285
G1 X123.851 Y23.857 E.01737
G1 X196.935 Y96.94 E3.11742
G1 X196.935 Y97.517 E.0174
G1 X123.275 Y23.857 E3.14201
G1 X122.698 Y23.857 E.0174
G1 X138.566 Y39.725 E.67686
G1 X138.837 Y39.741 E.00819
G1 X139.077 Y39.82 E.00762
G1 X139.322 Y39.994 E.00906
G1 X180.891 Y81.578 E1.77347
G1 X181.032 Y81.871 E.00981
G1 X181.066 Y82.225 E.01073
G1 X196.935 Y98.093 E.67688
G1 X196.935 Y98.669 E.01737
G1 X181.066 Y82.801 E.67688
G1 X181.066 Y83.378 E.0174
G1 X196.935 Y99.246 E.67688
G1 X196.935 Y99.822 E.01737
G1 X181.066 Y83.954 E.67688
G1 X181.066 Y84.53 E.01737
G1 X196.935 Y100.399 E.6769
G1 X196.935 Y100.975 E.01737
G1 X181.066 Y85.107 E.67688
G1 X181.066 Y85.683 E.01737
G1 X196.935 Y101.551 E.67688
G1 X196.935 Y102.128 E.0174
G1 X181.066 Y86.26 E.67688
G1 X181.066 Y86.836 E.01737
G1 X196.935 Y102.704 E.67688
G1 X196.935 Y103.281 E.0174
M73 P1 R309
G1 X181.066 Y87.412 E.6769
G1 X181.066 Y87.989 E.0174
G1 X196.935 Y103.857 E.67688
G1 X196.935 Y104.433 E.01737
G1 X181.066 Y88.565 E.67688
G1 X181.066 Y89.142 E.0174
G1 X196.935 Y105.01 E.67688
G1 X196.935 Y105.586 E.01737
G1 X181.066 Y89.718 E.67688
G1 X181.066 Y90.294 E.01737
G1 X196.935 Y106.163 E.6769
G1 X196.935 Y106.739 E.01737
G1 X181.066 Y90.871 E.67688
G1 X181.066 Y91.447 E.01737
G1 X196.935 Y107.315 E.67688
G1 X196.935 Y107.892 E.0174
G1 X181.066 Y92.024 E.67688
G1 X181.066 Y92.6 E.01737
G1 X196.935 Y108.468 E.67688
G1 X196.935 Y109.045 E.0174
G1 X181.066 Y93.176 E.6769
G1 X181.066 Y93.753 E.0174
G1 X196.935 Y109.621 E.67688
G1 X196.935 Y110.197 E.01737
G1 X181.066 Y94.329 E.67688
G1 X181.066 Y94.906 E.0174
G1 X196.935 Y110.774 E.67688
G1 X196.935 Y111.35 E.01737
G1 X181.066 Y95.482 E.67688
G1 X181.066 Y96.058 E.01737
G1 X196.935 Y111.927 E.6769
G1 X196.935 Y112.503 E.01737
G1 X181.066 Y96.635 E.67688
G1 X181.066 Y97.211 E.01737
G1 X196.935 Y113.079 E.67688
G1 X196.935 Y113.656 E.0174
G1 X181.066 Y97.788 E.67688
G1 X181.066 Y98.364 E.01737
G1 X196.935 Y114.232 E.67688
G1 X196.935 Y114.809 E.0174
G1 X181.061 Y98.935 E.67711
G1 X181.051 Y99.046 E.00336
G1 X180.972 Y99.286 E.00762
G1 X180.915 Y99.365 E.00294
G1 X196.935 Y115.385 E.68334
G1 X196.935 Y115.961 E.01737
G1 X180.651 Y99.677 E.6946
G1 X180.362 Y99.966 E.01233
G1 X196.935 Y116.538 E.70691
G1 X196.935 Y117.114 E.01737
G1 X180.074 Y100.254 E.71919
G1 X179.786 Y100.542 E.01228
G1 X196.935 Y117.691 E.7315
G1 X196.935 Y118.267 E.01737
G1 X179.498 Y100.83 E.74378
G1 X179.21 Y101.118 E.01228
G1 X196.935 Y118.843 E.75607
G1 X196.935 Y119.42 E.0174
G1 X178.921 Y101.407 E.76838
G1 X178.633 Y101.695 E.01228
G1 X196.935 Y119.996 E.78066
G1 X196.935 Y120.573 E.0174
G1 X178.345 Y101.983 E.79297
G1 X178.057 Y102.271 E.01228
G1 X196.935 Y121.149 E.80525
G1 X196.935 Y121.725 E.01737
G1 X177.769 Y102.559 E.81754
G1 X177.48 Y102.848 E.01233
G1 X196.935 Y122.302 E.82984
G1 X196.935 Y122.878 E.01737
G1 X177.192 Y103.136 E.84213
G1 X176.904 Y103.424 E.01228
G1 X196.935 Y123.454 E.85441
G1 X196.935 Y124.031 E.0174
G1 X176.616 Y103.712 E.86672
G1 X176.328 Y104 E.01228
G1 X196.935 Y124.607 E.879
G1 X196.935 Y125.184 E.0174
G1 X176.039 Y104.289 E.89131
G1 X175.751 Y104.577 E.01228
G1 X196.935 Y125.76 E.90359
G1 X196.935 Y126.336 E.01737
G1 X175.463 Y104.865 E.91588
G1 X175.175 Y105.153 E.01228
G1 X196.935 Y126.913 E.92818
G1 X196.935 Y127.489 E.01737
G1 X174.887 Y105.441 E.94047
G1 X174.598 Y105.73 E.01233
G1 X196.935 Y128.066 E.95278
G1 X196.935 Y128.642 E.01737
G1 X174.31 Y106.018 E.96506
G1 X174.022 Y106.306 E.01228
G1 X196.935 Y129.218 E.97735
G1 X196.935 Y129.795 E.0174
G1 X173.734 Y106.594 E.98965
G1 X173.446 Y106.882 E.01228
G1 X196.935 Y130.371 E1.00194
G1 X196.935 Y130.948 E.0174
G1 X173.157 Y107.171 E1.01424
G1 X172.869 Y107.459 E.01228
G1 X196.935 Y131.524 E1.02653
G1 X196.935 Y132.1 E.01737
G1 X172.581 Y107.747 E1.03881
G1 X172.293 Y108.035 E.01228
G1 X196.935 Y132.677 E1.05112
G1 X196.935 Y133.253 E.01737
G1 X172.005 Y108.323 E1.0634
G1 X171.716 Y108.612 E.01233
G1 X196.935 Y133.83 E1.07571
G1 X196.935 Y134.406 E.01737
G1 X171.428 Y108.9 E1.08799
G1 X171.14 Y109.188 E.01228
G1 X196.935 Y134.982 E1.10028
G1 X196.935 Y135.559 E.0174
G1 X170.852 Y109.476 E1.11258
G1 X170.564 Y109.764 E.01228
G1 X196.935 Y136.135 E1.12487
G1 X196.935 Y136.712 E.0174
G1 X170.275 Y110.053 E1.13718
G1 X169.987 Y110.341 E.01228
G1 X196.935 Y137.288 E1.14946
G1 X196.935 Y137.864 E.01737
G1 X169.699 Y110.629 E1.16175
G1 X169.411 Y110.917 E.01228
G1 X196.935 Y138.441 E1.17405
G1 X196.935 Y139.017 E.01737
G1 X169.123 Y111.205 E1.18634
G1 X168.834 Y111.494 E.01233
G1 X196.935 Y139.594 E1.19864
G1 X196.935 Y140.17 E.01737
G1 X168.546 Y111.782 E1.21093
G1 X168.258 Y112.07 E.01228
G1 X196.935 Y140.746 E1.22321
G1 X196.935 Y141.323 E.0174
G1 X167.97 Y112.358 E1.23552
G1 X167.682 Y112.646 E.01228
G1 X196.935 Y141.899 E1.2478
G1 X196.935 Y142.476 E.0174
G1 X167.393 Y112.935 E1.26011
G1 X167.105 Y113.223 E.01228
G1 X196.935 Y143.052 E1.27239
G1 X196.935 Y143.628 E.01737
G1 X166.817 Y113.511 E1.28468
G1 X166.529 Y113.799 E.01228
G1 X196.935 Y144.205 E1.29698
G1 X196.935 Y144.781 E.01737
G1 X166.241 Y114.087 E1.30927
G1 X165.952 Y114.376 E.01233
G1 X196.935 Y145.358 E1.32158
G1 X196.935 Y145.934 E.01737
G1 X165.664 Y114.664 E1.33386
G1 X165.376 Y114.952 E.01228
M73 P1 R308
G1 X196.935 Y146.51 E1.34614
G1 X196.935 Y147.087 E.0174
G1 X165.088 Y115.24 E1.35845
G1 X164.8 Y115.528 E.01228
G1 X196.935 Y147.663 E1.37074
G1 X196.935 Y148.24 E.0174
G1 X164.512 Y115.817 E1.38302
G1 X164.223 Y116.105 E.01231
G1 X196.935 Y148.816 E1.39533
G1 X196.935 Y149.392 E.01737
